dist/img/hero/wa.svg

<svg width="30" height="30" viewBox="0 0 30 30" fill="none" xmlns="http://www.w3.org/2000/svg">
<path fill-rule="evenodd" clip-rule="evenodd" d="M15 30C6.71575 30 0 23.2842 0 15C0 6.71575 6.71575 0 15 0C23.2842 0 30 6.71575 30 15C30 23.2842 23.2842 30 15 30ZM15.4944 23.3453C20.4122 23.3433 24.4119 19.3427 24.4138 14.4259C24.4148 12.0427 23.4879 9.80175 21.8039 8.11588C20.1199 6.42994 17.8804 5.50103 15.4943 5.5C10.578 5.5 6.57675 9.50106 6.57475 14.4189C6.57412 15.9909 6.98481 17.5253 7.76537 18.878L6.5 23.5L11.2283 22.2597C12.5311 22.9703 13.9979 23.3448 15.4908 23.3453H15.4944Z" fill="black"/>
<path fill-rule="evenodd" clip-rule="evenodd" d="M11.4475 20.6449L8.64162 21.381L9.39056 18.6453L9.21431 18.3648C8.47219 17.1844 8.08025 15.8203 8.08081 14.4194C8.08244 10.3319 11.4081 7.0065 15.4974 7.0065C17.4776 7.00719 19.3389 7.77931 20.7386 9.18063C22.1383 10.5819 22.9087 12.4445 22.9079 14.4254C22.9062 18.5133 19.5806 21.839 15.4945 21.839H15.4915C14.1612 21.8384 12.8564 21.4811 11.7182 20.8056L11.4475 20.6449ZM19.9881 16.5469C19.9324 16.454 19.7838 16.3983 19.5609 16.2866C19.3381 16.1751 18.2424 15.636 18.0381 15.5616C17.8338 15.4872 17.6851 15.4501 17.5366 15.6731C17.3881 15.8962 16.9609 16.3983 16.8309 16.5469C16.7009 16.6957 16.5709 16.7143 16.3481 16.6028C16.1252 16.4912 15.4071 16.2559 14.5559 15.4966C13.8933 14.9056 13.446 14.1758 13.316 13.9527C13.186 13.7296 13.3022 13.6089 13.4137 13.4978C13.514 13.3979 13.6366 13.2374 13.7481 13.1074C13.8595 12.9773 13.8966 12.8843 13.9709 12.7356C14.0452 12.5868 14.0081 12.4567 13.9523 12.3451C13.8966 12.2336 13.4509 11.1366 13.2652 10.6903C13.0842 10.2558 12.9006 10.3146 12.7637 10.3078C12.6339 10.3013 12.4852 10.2999 12.3366 10.2999C12.1881 10.2999 11.9466 10.3556 11.7423 10.5788C11.538 10.8019 10.9622 11.3411 10.9622 12.438C10.9622 13.535 11.7609 14.5948 11.8723 14.7435C11.9837 14.8923 13.4438 17.1433 15.6795 18.1087C16.2112 18.3383 16.6263 18.4754 16.9501 18.5781C17.4839 18.7478 17.9698 18.7239 18.3537 18.6664C18.782 18.6025 19.6723 18.1274 19.8581 17.6068C20.0437 17.0861 20.0437 16.6399 19.9881 16.5469Z" fill="black"/>
</svg>

<svg width="30" height="30" fill="none" xmlns="http://www.w3.org/2000/svg"><path fill-rule="evenodd" clip-rule="evenodd" d="M15 30C6.716 30 0 23.284 0 15 0 6.716 6.716 0 15 0c8.284 0 15 6.716 15 15 0 8.284-6.716 15-15 15zm.494-6.655c4.918-.002 8.918-4.002 8.92-8.92a8.865 8.865 0 00-2.61-6.31 8.862 8.862 0 00-6.31-2.615c-4.916 0-8.917 4.001-8.92 8.919 0 1.572.41 3.106 1.191 4.459L6.5 23.5l4.728-1.24a8.912 8.912 0 004.263 1.085h.003z" fill="#000"/><path fill-rule="evenodd" clip-rule="evenodd" d="M11.447 20.645l-2.805.736.749-2.736-.177-.28a7.396 7.396 0 01-1.133-3.946c.001-4.087 3.327-7.413 7.416-7.413 1.98.001 3.842.773 5.242 2.175a7.369 7.369 0 012.169 5.244c-.002 4.088-3.327 7.414-7.414 7.414h-.002a7.403 7.403 0 01-3.774-1.033l-.27-.161zm8.541-4.098c-.056-.093-.204-.149-.427-.26-.223-.112-1.319-.651-1.523-.725-.204-.075-.353-.112-.501.111-.149.223-.576.725-.706.874-.13.149-.26.167-.483.056-.223-.112-.94-.347-1.792-1.106-.663-.591-1.11-1.321-1.24-1.544-.13-.223-.014-.344.098-.455.1-.1.223-.26.334-.39.112-.13.149-.224.223-.372.074-.15.037-.28-.019-.39-.055-.112-.501-1.21-.687-1.656-.18-.434-.364-.375-.501-.382a8.876 8.876 0 00-.427-.008.819.819 0 00-.595.279c-.204.223-.78.762-.78 1.859s.799 2.157.91 2.305c.112.15 1.572 2.4 3.808 3.366.531.23.946.366 1.27.47.534.169 1.02.145 1.404.087.428-.064 1.318-.539 1.504-1.06.186-.52.186-.966.13-1.06z" fill="#000"/></svg>
